src/travel-train.svg

<?xml version="1.0" encoding="UTF-8" standalone="no"?>
<svg width="20px" height="20px" viewBox="0 0 20 20" version="1.1" xmlns="http://www.w3.org/2000/svg" xmlns:xlink="http://www.w3.org/1999/xlink">
    <!-- Generator: Sketch 3.7.2 (28276) - http://www.bohemiancoding.com/sketch -->
    <title>travel-train</title>
    <desc>Created with Sketch.</desc>
    <defs></defs>
    <g id="Page-1" stroke="none" stroke-width="1" fill="none" fill-rule="evenodd">
        <g id="travel-train" fill="#000000">
            <path d="M12,18 L8,18 L6,20 L3,20 L5.00000823,17.9999918 C3.89489347,17.9968557 3,17.1054358 3,16.0049107 L3,1.99508929 C3,0.893231902 3.89706013,0 5.00585866,0 L14.9941413,0 C16.1019465,0 17,0.892622799 17,1.99508929 L17,16.0049107 C17,17.1048295 16.1060936,17.9968563 14.9999917,17.9999917 L17,20 L14,20 L12,18 L12,18 Z M5,5 L15,5 L15,11 L5,11 L5,5 L5,5 Z M6.5,16 C7.32842712,16 8,15.3284271 8,14.5 C8,13.6715729 7.32842712,13 6.5,13 C5.67157288,13 5,13.6715729 5,14.5 C5,15.3284271 5.67157288,16 6.5,16 L6.5,16 Z M13.5,16 C14.3284271,16 15,15.3284271 15,14.5 C15,13.6715729 14.3284271,13 13.5,13 C12.6715729,13 12,13.6715729 12,14.5 C12,15.3284271 12.6715729,16 13.5,16 L13.5,16 Z M8,2 L12,2 L12,3 L8,3 L8,2 L8,2 Z" id="Combined-Shape"></path>
        </g>
    </g>
</svg>

<svg xmlns="http://www.w3.org/2000/svg" viewBox="0 0 20 20"><path d="M12 18H8l-2 2H3l2-2a2 2 0 0 1-2-2V2c0-1.1.9-2 2-2h10a2 2 0 0 1 2 2v14a2 2 0 0 1-2 2l2 2h-3l-2-2zM5 5v6h10V5H5zm1.5 11a1.5 1.5 0 1 0 0-3 1.5 1.5 0 0 0 0 3zm7 0a1.5 1.5 0 1 0 0-3 1.5 1.5 0 0 0 0 3zM8 2v1h4V2H8z"/></svg>
